X:0
T:Fool's Journey, The
M:C|
R:Reel
K:G
"G"BcdB G2G2|BcdB "C"c2c2|"G"BcdB G2G2|"D"FGAB cAF2|!
"G"BcdB G2G2|BcdB "C"c2c2|"G"dBcA BGAG|"D"FGAF "G"G4:|!
|:"D"FGAB "C"c2c2|"D"FGAc "G"d2d2|"D"FGAB "C"cABG|"D"AGFE D4|!
"D"FGAB "C"c2c2|"D"FGAc "G"d2d2|"C"edcB cBAG|"D"FGAF "G"G4:|]
